X:115
T:Hudie Gallagher's
M:6/8
L:1/8
K:D
ed||:"A"cAA eAA|"D"fed "A"cAA|"D"def gfg|"G"BcB B2e|"A"cAA eAA|"D"fed "A
"cAA|"A"~c3 "E"dBe|1"A"ABA A2e:||2"A"ABA A2a
||"D"afa "A"geg|"D"fed "A"cAA|"D"def gfg|"G"BcB B2a|"D"afa "A"geg|"D"fed
"A"cAA|"A"~c3 "G"dBe|1"A"ABA A2a:||2"A"ABA A2e||
